dist/img/icons/rocket.svg

<svg width="28" height="28" viewBox="0 0 28 28" fill="none" xmlns="http://www.w3.org/2000/svg">
<path fill-rule="evenodd" clip-rule="evenodd" d="M4.34444 9.86026L8.50477 8.39267C7.6458 9.54895 6.90808 10.7905 6.30327 12.0978L4.34444 9.86026ZM1.4546 10.1017L5.3081 14.5045L4.75044 15.8998C4.66557 16.1116 4.64464 16.3435 4.69026 16.5671C4.73588 16.7906 4.84604 16.9958 5.0071 17.1574L5.3746 17.5237C3.3866 19.7636 2.28994 22.1073 1.22594 25.2968C1.15738 25.5024 1.14744 25.723 1.19721 25.9339C1.24698 26.1447 1.3545 26.3376 1.50772 26.4908C1.66095 26.644 1.85382 26.7516 2.06472 26.8013C2.27562 26.8511 2.49621 26.8411 2.70177 26.7726C5.89144 25.7087 8.23527 24.612 10.4753 22.6241L10.8416 22.9905C11.0031 23.1517 11.2082 23.2621 11.4318 23.3079C11.6553 23.3537 11.8874 23.333 12.0993 23.2483L13.4946 22.6906L17.8976 26.5439C18.041 26.6695 18.2131 26.7581 18.3986 26.8018C18.5842 26.8455 18.7777 26.8431 18.9621 26.7948C19.1465 26.7464 19.3163 26.6536 19.4565 26.5245C19.5968 26.3953 19.7032 26.2338 19.7666 26.054L23.2503 16.1845C25.5641 13.4466 26.8335 9.9777 26.8331 6.3931V2.3333C26.8331 2.02389 26.7102 1.72716 26.4914 1.50838C26.2726 1.2896 25.9759 1.16669 25.6664 1.16669H21.6064C18.0222 1.16619 14.5536 2.43502 11.8158 4.74818L1.94577 8.23284C1.76615 8.29626 1.6048 8.4027 1.4758 8.54285C1.3468 8.68301 1.25408 8.85261 1.20575 9.03686C1.15741 9.2211 1.15493 9.41438 1.19851 9.5998C1.24209 9.78523 1.33042 9.95716 1.45577 10.1006L1.4546 10.1017ZM4.29894 23.6998C5.0316 21.9312 5.85294 20.5242 7.02777 19.1768L8.8221 20.9711C7.4746 22.1458 6.0676 22.9671 4.29894 23.6998ZM11.9476 20.7972L11.3246 20.1743L7.8246 16.6744L7.2016 16.0515L8.02994 13.9807C8.7901 12.0811 9.85745 10.3193 11.1893 8.76598L11.8613 7.98085C13.0662 6.57523 14.5611 5.44696 16.2432 4.67349C17.9254 3.90002 19.755 3.49967 21.6064 3.49991H24.4998V6.3931C24.5 8.24447 24.0996 10.074 23.3261 11.756C22.5526 13.4381 21.4243 14.9329 20.0186 16.1378L19.2334 16.8098C17.68 18.1415 15.9182 19.2088 14.0184 19.9689L11.9476 20.7972ZM18.1391 23.6543L15.9014 21.6967C17.2088 21.0919 18.4505 20.3542 19.6068 19.4953L18.1391 23.6543ZM17.4998 9.33295C17.4998 9.02355 17.6227 8.72682 17.8415 8.50804C18.0603 8.28925 18.357 8.16634 18.6664 8.16634C18.9759 8.16634 19.2726 8.28925 19.4914 8.50804C19.7102 8.72682 19.8331 9.02355 19.8331 9.33295C19.8331 9.64236 19.7102 9.93909 19.4914 10.1579C19.2726 10.3767 18.9759 10.4996 18.6664 10.4996C18.357 10.4996 18.0603 10.3767 17.8415 10.1579C17.6227 9.93909 17.4998 9.64236 17.4998 9.33295ZM18.6664 5.83313C17.7382 5.83313 16.8479 6.20186 16.1916 6.8582C15.5352 7.51455 15.1664 8.40474 15.1664 9.33295C15.1664 10.2612 15.5352 11.1514 16.1916 11.8077C16.8479 12.4641 17.7382 12.8328 18.6664 12.8328C19.5947 12.8328 20.4849 12.4641 21.1413 11.8077C21.7977 11.1514 22.1664 10.2612 22.1664 9.33295C22.1664 8.40474 21.7977 7.51455 21.1413 6.8582C20.4849 6.20186 19.5947 5.83313 18.6664 5.83313Z" fill="#00143C"/>
</svg>

<svg width="28" height="28" fill="none" xmlns="http://www.w3.org/2000/svg"><path fill-rule="evenodd" clip-rule="evenodd" d="M4.344 9.86l4.16-1.467a20.998 20.998 0 00-2.2 3.705L4.343 9.86zm-2.89.242l3.854 4.402L4.75 15.9a1.167 1.167 0 00.257 1.257l.368.367c-1.988 2.24-3.085 4.583-4.15 7.773a1.167 1.167 0 001.477 1.476c3.19-1.064 5.533-2.161 7.773-4.149l.367.367a1.167 1.167 0 001.257.257l1.396-.557 4.403 3.853a1.167 1.167 0 001.869-.49l3.483-9.87a15.167 15.167 0 003.583-9.79v-4.06a1.167 1.167 0 00-1.167-1.167h-4.06a15.167 15.167 0 00-9.79 3.581l-9.87 3.485a1.167 1.167 0 00-.49 1.868h-.001zM4.3 23.7c.733-1.769 1.554-3.176 2.729-4.523l1.794 1.794C7.475 22.146 6.068 22.967 4.3 23.7zm7.649-2.903l-.623-.623-3.5-3.5-.623-.622.828-2.071c.76-1.9 1.827-3.662 3.16-5.215l.671-.785A12.833 12.833 0 0121.606 3.5H24.5v2.893a12.833 12.833 0 01-4.481 9.745l-.786.672a18.666 18.666 0 01-5.215 3.159l-2.07.828zm6.191 2.857l-2.238-1.957a21 21 0 003.706-2.202l-1.468 4.16zM17.5 9.333a1.167 1.167 0 112.334 0 1.167 1.167 0 01-2.333 0zm1.167-3.5a3.5 3.5 0 100 7 3.5 3.5 0 000-7z" fill="#00143C"/></svg>
